public/images/yumoney.svg

<svg width="108" height="68" viewBox="0 0 108 68" fill="none" xmlns="http://www.w3.org/2000/svg">
<g filter="url(#filter0_b_83_3191)">
<rect x="4" y="64" width="60" height="100" rx="30" transform="rotate(-90 4 64)" fill="url(#paint0_radial_83_3191)"/>
<rect x="2.25" y="65.75" width="63.5" height="103.5" rx="31.75" transform="rotate(-90 2.25 65.75)" stroke="url(#paint1_radial_83_3191)" stroke-width="3.5"/>
<rect x="2.25" y="65.75" width="63.5" height="103.5" rx="31.75" transform="rotate(-90 2.25 65.75)" stroke="url(#paint2_radial_83_3191)" stroke-width="3.5"/>
</g>
<path d="M86.4428 30.3901L84.713 34.4697C84.713 34.5264 84.6532 34.5831 84.6532 34.6397L84.5935 34.753L84.5338 34.6397C84.5338 34.5831 84.4741 34.5264 84.4741 34.4697L82.7443 30.3901H80.4775L83.46 37.4161L82.2074 40.0791H84.4741L88.6498 30.3901H86.4428Z" fill="#EAE0FF"/>
<path d="M69.738 30.7888C69.3204 30.5054 68.8432 30.3355 68.2466 30.2788C67.2324 30.1655 66.2779 30.5054 65.6813 31.1854V30.3921H63.6533V37.4181H65.6813V33.7351C65.6813 32.8852 65.8604 32.7152 65.9798 32.4886C66.2182 32.092 66.6954 31.8653 67.2324 31.922C67.7693 31.922 68.3063 32.1486 68.5447 32.5452C68.7238 32.8286 68.7238 33.1685 68.7238 33.3952C68.7238 34.0184 68.7238 37.4181 68.7238 37.4181H70.7521V33.1685C70.7521 32.0353 70.3939 31.2987 69.738 30.7888Z" fill="#EAE0FF"/>
<path d="M59.7784 30.4461C58.7646 30.1061 57.6907 30.1628 56.6765 30.6161C55.9609 30.8994 55.424 31.4093 55.0064 32.0326C54.6482 32.5992 54.4695 33.2225 54.4695 33.959C54.4695 34.6956 54.6482 35.3189 55.0064 35.8855C55.3642 36.4521 55.8415 36.8488 56.4381 37.1887C57.0344 37.472 57.7504 37.642 58.4064 37.642C58.7646 37.642 59.1224 37.5854 59.4802 37.5287C59.7784 37.472 60.0769 37.3587 60.375 37.1887C60.9717 36.8488 61.4489 36.4521 61.8067 35.9422C62.1645 35.3756 62.3437 34.7523 62.3437 34.0157C62.284 32.3159 61.3295 31.0127 59.7784 30.4461ZM60.3153 33.959C60.3153 34.5823 60.0769 35.0923 59.6594 35.4323C59.3608 35.7155 58.9433 35.8289 58.3467 35.8289C57.8101 35.8289 57.3922 35.6589 57.0344 35.4323C56.6168 35.0923 56.4381 34.5823 56.3784 33.959C56.3784 33.2791 56.6168 32.6558 57.1538 32.2592C57.4519 32.0326 57.8101 31.9193 58.2874 31.9193C58.7646 31.9193 59.1224 32.0326 59.4205 32.2592C60.0769 32.6558 60.375 33.2791 60.3153 33.959Z" fill="#EAE0FF"/>
<path d="M52.1438 30.7857C51.7859 30.5024 51.249 30.3324 50.6525 30.2757C50.5332 30.2757 50.4139 30.2757 50.2946 30.2757C49.4594 30.2757 48.8033 30.6157 48.2067 31.2957L48.0874 31.409H47.8488C47.6699 31.1823 47.4909 30.9557 47.2523 30.8423C46.8943 30.5024 46.4171 30.3324 45.8206 30.2757C44.8661 30.1624 44.0907 30.4457 43.4345 31.1257V30.3891H41.4062V37.415H43.4345V33.7321V33.6754C43.4345 32.8821 43.5538 32.7122 43.6731 32.4855C43.9117 32.0889 44.3889 31.8623 44.8661 31.8623C45.3434 31.8623 45.8206 32.0889 46.0592 32.4855C46.2382 32.7688 46.2382 33.1088 46.2382 33.4487V37.3583H48.326V33.6187C48.326 32.9388 48.4453 32.6555 48.5647 32.4289C48.8032 32.0322 49.2805 31.8623 49.7577 31.8623C50.2349 31.8623 50.6525 32.1455 50.8911 32.4855C51.0104 32.7122 51.0701 32.9955 51.0701 33.2221C51.0701 33.3354 51.0701 33.3921 51.0701 33.5054V37.415H53.0983V33.1655C53.0983 32.7688 53.0386 32.4289 52.979 32.0889C52.8597 31.5223 52.5614 31.069 52.1438 30.7857Z" fill="#EAE0FF"/>
<path d="M78.449 35.2623C78.1509 35.5456 77.4349 36.0556 76.4804 36.1122C75.705 36.1122 75.0487 35.9423 74.6312 35.489C74.4524 35.2623 74.2733 35.0357 74.2136 34.7524H79.8807V34.6957C79.9404 34.4124 79.9404 34.1291 79.9404 33.9025C79.9404 33.6758 79.8807 33.3359 79.7613 32.8826C79.5229 32.0893 79.0457 31.4661 78.3893 30.9561C77.6737 30.4462 76.9576 30.2762 76.7789 30.2762C75.2875 30.0496 73.617 30.6728 72.7819 31.976C72.1853 32.8826 72.1853 33.7892 72.245 34.0724C72.245 34.4124 72.3047 35.489 73.1994 36.3956C74.2136 37.4721 75.705 37.5288 76.1823 37.5854C78.2106 37.6421 79.5826 36.4522 79.8807 36.1689L78.449 35.2623ZM74.9297 32.316C75.2278 32.0893 75.5856 31.976 76.0629 31.976C76.5401 31.976 76.8979 32.0893 77.1964 32.316C77.4946 32.5426 77.7334 32.8259 77.8524 33.2226H74.2136C74.3927 32.8259 74.6312 32.5426 74.9297 32.316Z" fill="#EAE0FF"/>
<path d="M27.3249 25.7993C22.7316 25.7993 19.0928 29.3123 19.0928 33.6185C19.0928 37.9247 22.7912 41.4377 27.3249 41.4377C31.8586 41.4377 35.557 37.9247 35.557 33.6185C35.6167 29.3123 31.8586 25.7993 27.3249 25.7993ZM27.3249 36.5082C25.6546 36.5082 24.2229 35.205 24.2229 33.6185C24.2229 32.032 25.5949 30.7288 27.3249 30.7288C29.0548 30.7288 30.4269 32.032 30.4269 33.6185C30.3672 35.205 29.0548 36.5082 27.3249 36.5082Z" fill="#EAE0FF"/>
<path d="M19.0928 28.1211V39.5099H16.1698L12.4116 28.1211H19.0928Z" fill="#EAE0FF"/>
<defs>
<filter id="filter0_b_83_3191" x="-41.5" y="-41.5" width="191" height="151" filterUnits="userSpaceOnUse" color-interpolation-filters="sRGB">
<feFlood flood-opacity="0" result="BackgroundImageFix"/>
<feGaussianBlur in="BackgroundImageFix" stdDeviation="21"/>
<feComposite in2="SourceAlpha" operator="in" result="effect1_backgroundBlur_83_3191"/>
<feBlend mode="normal" in="SourceGraphic" in2="effect1_backgroundBlur_83_3191" result="shape"/>
</filter>
<radialGradient id="paint0_radial_83_3191" cx="0" cy="0" r="1" gradientUnits="userSpaceOnUse" gradientTransform="translate(5.17073 67.5857) rotate(58.6097) scale(112.945 185.648)">
<stop stop-color="white" stop-opacity="0.26"/>
<stop offset="1" stop-color="white" stop-opacity="0"/>
</radialGradient>
<radialGradient id="paint1_radial_83_3191" cx="0" cy="0" r="1" gradientUnits="userSpaceOnUse" gradientTransform="translate(4.87805 64) rotate(58.9001) scale(114.459 186.157)">
<stop stop-color="white"/>
<stop offset="1" stop-color="white" stop-opacity="0"/>
</radialGradient>
<radialGradient id="paint2_radial_83_3191" cx="0" cy="0" r="1" gradientUnits="userSpaceOnUse" gradientTransform="translate(4 64) rotate(58.9001) scale(114.459 186.157)">
<stop stop-color="#18195E"/>
<stop offset="1" stop-color="#151515" stop-opacity="0"/>
</radialGradient>
</defs>
</svg>

<svg width="108" height="68" fill="none" xmlns="http://www.w3.org/2000/svg"><g filter="url(#a)"><rect x="4" y="64" width="60" height="100" rx="30" transform="rotate(-90 4 64)" fill="url(#b)"/><rect x="2.25" y="65.75" width="63.5" height="103.5" rx="31.75" transform="rotate(-90 2.25 65.75)" stroke="url(#c)" stroke-width="3.5"/><rect x="2.25" y="65.75" width="63.5" height="103.5" rx="31.75" transform="rotate(-90 2.25 65.75)" stroke="url(#d)" stroke-width="3.5"/></g><path d="m86.443 30.39-1.73 4.08c0 .056-.06.113-.06.17l-.06.113-.06-.113c0-.057-.059-.114-.059-.17l-1.73-4.08h-2.266l2.982 7.026-1.253 2.663h2.267l4.176-9.689h-2.207ZM69.738 30.789c-.418-.284-.895-.454-1.491-.51-1.015-.113-1.97.226-2.566.906v-.793h-2.028v7.026h2.028v-3.683c0-.85.18-1.02.299-1.246.238-.397.715-.624 1.252-.567.537 0 1.074.227 1.313.623.179.284.179.623.179.85v4.023h2.028v-4.25c0-1.133-.358-1.87-1.014-2.38ZM59.778 30.446c-1.013-.34-2.087-.283-3.102.17-.715.283-1.252.793-1.67 1.417-.358.566-.537 1.19-.537 1.926 0 .737.18 1.36.537 1.926.358.567.836.964 1.432 1.304a4.752 4.752 0 0 0 1.968.453c.359 0 .716-.057 1.074-.113a2.9 2.9 0 0 0 .895-.34c.597-.34 1.074-.737 1.432-1.247.357-.566.537-1.19.537-1.926-.06-1.7-1.014-3.003-2.566-3.57Zm.537 3.513c0 .623-.238 1.133-.656 1.473-.298.283-.716.397-1.312.397-.537 0-.955-.17-1.313-.397-.417-.34-.596-.85-.656-1.473 0-.68.239-1.303.776-1.7.298-.226.656-.34 1.133-.34.478 0 .835.114 1.133.34.657.397.955 1.02.895 1.7ZM52.144 30.786c-.358-.284-.895-.454-1.491-.51h-.358c-.836 0-1.492.34-2.088 1.02l-.12.113h-.238c-.18-.227-.358-.453-.597-.567-.358-.34-.835-.51-1.431-.566-.955-.114-1.73.17-2.386.85v-.737h-2.029v7.026h2.029V33.675c0-.793.119-.963.238-1.19.239-.396.716-.623 1.193-.623.477 0 .955.227 1.193.624.18.283.18.623.18.963v3.91h2.087v-3.74c0-.68.12-.963.239-1.19.238-.397.716-.567 1.193-.567.477 0 .895.284 1.133.624.12.226.18.51.18.736V37.415h2.027v-4.25c0-.396-.06-.736-.119-1.076-.12-.567-.418-1.02-.835-1.303ZM78.449 35.262a3.26 3.26 0 0 1-1.969.85c-.775 0-1.431-.17-1.849-.623-.179-.227-.358-.453-.417-.737h5.667v-.056c.06-.284.06-.567.06-.793 0-.227-.06-.567-.18-1.02-.238-.794-.715-1.417-1.372-1.927-.715-.51-1.431-.68-1.61-.68-1.492-.226-3.162.397-3.997 1.7-.597.907-.597 1.813-.537 2.096 0 .34.06 1.417.954 2.324 1.015 1.076 2.506 1.133 2.983 1.19 2.029.056 3.4-1.134 3.699-1.417l-1.432-.907Zm-3.52-2.946c.299-.227.657-.34 1.134-.34.477 0 .835.113 1.133.34.299.227.537.51.656.907h-3.638c.179-.397.417-.68.716-.907ZM27.325 25.8c-4.593 0-8.232 3.512-8.232 7.818 0 4.307 3.698 7.82 8.232 7.82 4.534 0 8.232-3.513 8.232-7.82.06-4.306-3.698-7.819-8.232-7.819Zm0 10.708c-1.67 0-3.102-1.303-3.102-2.89 0-1.586 1.372-2.89 3.102-2.89 1.73 0 3.102 1.304 3.102 2.89-.06 1.587-1.372 2.89-3.102 2.89ZM19.093 28.121V39.51H16.17L12.412 28.12h6.68Z" fill="#EAE0FF"/><defs><radialGradient id="b" cx="0" cy="0" r="1" gradientUnits="userSpaceOnUse" gradientTransform="matrix(58.82911 96.41426 -158.47637 96.69757 5.17 67.586)"><stop stop-color="#fff" stop-opacity=".26"/><stop offset="1" stop-color="#fff" stop-opacity="0"/></radialGradient><radialGradient id="c" cx="0" cy="0" r="1" gradientUnits="userSpaceOnUse" gradientTransform="rotate(58.9 -54.236 36.32) scale(114.459 186.157)"><stop stop-color="#fff"/><stop offset="1" stop-color="#fff" stop-opacity="0"/></radialGradient><radialGradient id="d" cx="0" cy="0" r="1" gradientUnits="userSpaceOnUse" gradientTransform="rotate(58.9 -54.675 35.542) scale(114.459 186.157)"><stop stop-color="#18195E"/><stop offset="1" stop-color="#151515" stop-opacity="0"/></radialGradient><filter id="a" x="-41.5" y="-41.5" width="191" height="151" filterUnits="userSpaceOnUse" color-interpolation-filters="sRGB"><feFlood flood-opacity="0" result="BackgroundImageFix"/><feGaussianBlur in="BackgroundImageFix" stdDeviation="21"/><feComposite in2="SourceAlpha" operator="in" result="effect1_backgroundBlur_83_3191"/><feBlend in="SourceGraphic" in2="effect1_backgroundBlur_83_3191" result="shape"/></filter></defs></svg>
